icons/gift-17.svg

<svg width="16" height="17" viewBox="0 0 16 17" fill="none" xmlns="http://www.w3.org/2000/svg">
<path fill-rule="evenodd" clip-rule="evenodd" d="M5.5625 3.29138C5.04473 3.29138 4.625 3.71111 4.625 4.22888C4.625 4.74665 5.04473 5.16638 5.5625 5.16638H7.29405C7.11934 4.55321 6.88747 4.11557 6.63542 3.82151C6.31289 3.44523 5.94958 3.29138 5.5625 3.29138ZM3.5 4.22888C3.5 4.56646 3.5811 4.88511 3.72489 5.16638H3.3125C2.58763 5.16638 2 5.75401 2 6.47888V7.97888C2 8.50246 2.30657 8.95443 2.75 9.16507V12.8539C2.75 13.5788 3.33763 14.1664 4.0625 14.1664H11.9375C12.6624 14.1664 13.25 13.5788 13.25 12.8539V9.16507C13.6934 8.95443 14 8.50246 14 7.97888V6.47888C14 5.75401 13.4124 5.16638 12.6875 5.16638H12.2751C12.4189 4.88511 12.5 4.56646 12.5 4.22888C12.5 3.0898 11.5766 2.16638 10.4375 2.16638C9.69957 2.16638 9.03164 2.48128 8.51042 3.08938C8.31856 3.31321 8.1483 3.5743 8 3.87116C7.8517 3.5743 7.68144 3.31321 7.48958 3.08938C6.96836 2.48128 6.30042 2.16638 5.5625 2.16638C4.42341 2.16638 3.5 3.0898 3.5 4.22888ZM8.70595 5.16638H10.4375C10.9553 5.16638 11.375 4.74665 11.375 4.22888C11.375 3.71111 10.9553 3.29138 10.4375 3.29138C10.0504 3.29138 9.68712 3.44523 9.36458 3.82151C9.11253 4.11557 8.88066 4.55321 8.70595 5.16638ZM3.3125 6.29138C3.20895 6.29138 3.125 6.37533 3.125 6.47888V7.97888C3.125 8.08243 3.20895 8.16638 3.3125 8.16638H7.4375V6.29138H3.3125ZM8.5625 6.29138V8.16638H12.6875C12.7911 8.16638 12.875 8.08243 12.875 7.97888V6.47888C12.875 6.37533 12.7911 6.29138 12.6875 6.29138H8.5625ZM8.5625 9.29138H12.125V12.8539C12.125 12.9575 12.0411 13.0414 11.9375 13.0414H8.5625V9.29138ZM7.4375 9.29138V13.0414H4.0625C3.95895 13.0414 3.875 12.9575 3.875 12.8539V9.29138H7.4375Z" fill="#272431"/>
</svg>

<svg xmlns="http://www.w3.org/2000/svg" width="16" height="17" viewBox="0 0 16 17"><path fill-rule="evenodd" d="M5.563 3.291a.937.937 0 100 1.875h1.731c-.175-.613-.407-1.05-.659-1.344-.322-.377-.685-.53-1.072-.53zM3.5 4.23c0 .337.081.656.225.937h-.413A1.312 1.312 0 002 6.48v1.5c0 .523.307.975.75 1.186v3.689c0 .725.588 1.312 1.313 1.312h7.875c.724 0 1.312-.587 1.312-1.312v-3.69c.443-.21.75-.663.75-1.186v-1.5c0-.725-.588-1.313-1.313-1.313h-.412a2.062 2.062 0 00-1.838-3c-.737 0-1.405.315-1.927.923a3.814 3.814 0 00-.51.782 3.814 3.814 0 00-.51-.782c-.522-.608-1.19-.923-1.928-.923A2.063 2.063 0 003.5 4.229zm5.206.937h1.732a.937.937 0 100-1.875c-.388 0-.75.154-1.073.53-.252.295-.484.732-.66 1.345zM3.313 6.291a.188.188 0 00-.188.188v1.5c0 .103.084.187.188.187h4.124V6.291H3.313zm5.25 0v1.875h4.124a.187.187 0 00.188-.187v-1.5a.187.187 0 00-.188-.188H8.564zm0 3h3.562v3.563a.187.187 0 01-.188.187H8.563v-3.75zm-1.126 0v3.75H4.063a.187.187 0 01-.187-.187V9.29h3.563z"/></svg>
